app/img/m-logo-3.svg

<svg width="30" height="38" viewBox="0 0 30 38" fill="none" xmlns="http://www.w3.org/2000/svg">
<path fill-rule="evenodd" clip-rule="evenodd" d="M19.0745 37.7966C19.0745 37.7966 20.9819 34.024 20.9819 31.4023C20.9819 30.2961 19.0745 28.8446 19.0745 28.8446C19.0745 28.8446 17.8028 28.8957 17.8028 23.7292C17.8028 22.9235 18.9664 22.0794 19.7421 21.5871C21.7449 20.3082 21.4397 16.6954 22.2535 16.6954C24.428 16.6954 24.161 14.7004 24.161 13.4983C24.161 12.1171 22.2535 13.4983 22.2535 13.4983V5.82513H6.99395V13.4983C6.99395 13.4983 5.0865 12.5647 5.0865 14.1377C5.0865 15.0649 4.71773 16.056 6.35813 16.6954C7.62977 17.1942 8.46269 19.6304 9.04128 21.0435C9.61987 22.4567 11.3175 22.4951 11.3175 23.7419C11.3175 28.3522 10.173 28.8574 10.173 28.8574C10.173 28.8574 7.62977 30.3536 7.62977 30.7757C7.62977 32.8538 10.173 37.8094 10.173 37.8094L19.0745 37.7966Z" fill="white"/>
<path fill-rule="evenodd" clip-rule="evenodd" d="M14.6238 37.7966H19.0745C19.0745 37.7966 20.982 33.2311 20.982 30.7629C20.982 29.9956 19.0745 28.8446 19.0745 28.8446C19.0745 28.8446 17.8029 28.8957 17.8029 23.7292C17.8029 22.9235 18.9664 22.0794 19.7421 21.5871C21.7449 20.3082 21.4397 16.6954 22.2536 16.6954C24.4281 16.6954 24.161 14.7004 24.161 13.4983C24.161 12.1171 22.2536 13.4983 22.2536 13.4983V5.82513H17.1671C17.9556 8.74515 18.3827 11.7519 18.4387 14.7771C18.4387 20.532 17.0717 21.7086 15.2596 23.0897C14.7899 24.0868 14.5716 25.1848 14.6238 26.2869V37.7966Z" fill="#F1EEE9"/>
<path fill-rule="evenodd" clip-rule="evenodd" d="M7.05121 12.7886C6.98763 12.9484 7.11479 13.3385 6.98763 13.428C6.86047 13.5175 6.44083 13.2682 6.35181 13.2426C6.07662 11.7288 5.8898 10.2 5.7923 8.66426C5.73507 7.34065 6.51077 7.07848 7.13387 5.63976C7.48357 4.83408 7.28646 3.99643 7.96043 3.26748C9.01588 2.1293 11.273 0 14.0134 0C19.3988 0 21.8212 2.40425 22.8258 5.17938C22.8635 5.34395 22.9558 5.49069 23.0876 5.59533C23.2194 5.69997 23.3827 5.75625 23.5506 5.75486C24.2691 5.79962 25.4581 5.36481 25.4581 5.75486C25.4581 6.64367 23.3853 6.79713 23.3853 7.71151C23.3853 8.35094 24.8223 7.41738 24.8223 7.67315C24.8223 8.31258 23.3853 9.02874 23.3218 9.59144C23.2582 10.1541 23.6969 10.7424 23.5506 11.5097C23.3708 11.9514 23.1583 12.3789 22.9148 12.7886C22.9148 12.7886 22.4698 13.428 22.279 13.428C22.19 13.428 22.279 12.9229 22.279 12.7886C22.279 9.50831 20.734 10.6721 19.7358 10.2309C18.7883 9.65358 17.9312 8.93816 17.1925 8.10796C16.3468 7.17439 15.8763 6.29198 14.3059 6.29198C13.2441 6.29198 11.9534 6.77795 10.7962 6.96978C9.97597 7.10406 9.302 6.84829 8.65347 7.41098C8.00494 7.97368 7.10843 12.309 7.05121 12.7886Z" fill="#009F90"/>
<path fill-rule="evenodd" clip-rule="evenodd" d="M21.6178 17.3348C21.1492 17.4427 20.7131 17.662 20.3461 17.9743C19.8184 18.3707 19.2017 19.0997 18.4387 19.2531C17.2179 19.4961 17.167 18.6137 14.3059 18.6137C11.4447 18.6137 11.3938 19.4897 10.1731 19.2531C9.45459 19.1061 8.78062 18.3451 8.26561 17.9743C7.89864 17.662 7.46258 17.4427 6.99398 17.3348C6.76514 17.4507 6.57963 17.6377 6.46506 17.8682C6.3505 18.0986 6.313 18.3601 6.35816 18.6137C7.10206 21.1075 10.1222 26.2868 14.2804 26.2868C18.4387 26.2868 21.5033 21.0947 22.2536 18.6137C22.2967 18.3602 22.2582 18.0996 22.1439 17.8696C22.0295 17.6396 21.8452 17.4522 21.6178 17.3348ZM14.3059 19.8926C16.2133 19.8926 17.8029 19.8926 17.8029 20.532C17.6615 20.8494 17.4408 21.1247 17.1622 21.3308C16.8836 21.537 16.5567 21.6671 16.2133 21.7085C15.6665 21.7725 15.2723 21.1586 14.3059 21.1714C13.3394 21.1842 12.9389 21.7725 12.3984 21.7021C12.0563 21.6642 11.7303 21.536 11.4534 21.3305C11.1765 21.125 10.9585 20.8495 10.8216 20.532C10.8089 19.9053 12.3984 19.8926 14.3059 19.8926Z" fill="#39322B"/>
<path fill-rule="evenodd" clip-rule="evenodd" d="M10.1667 12.6799C8.77424 12.4561 7.62341 12.1492 7.62341 12.162C8.38495 11.6958 9.28479 11.5125 10.1667 11.6441C11.3557 11.919 12.9516 12.2835 12.71 12.6799C12.5065 12.9805 11.0695 12.8206 10.1667 12.6799Z" fill="#39322B"/>
<path fill-rule="evenodd" clip-rule="evenodd" d="M19.0808 12.6799C20.4733 12.4561 21.6241 12.1492 21.6241 12.162C20.8626 11.6958 19.9627 11.5125 19.0808 11.6441C17.8919 11.919 16.296 12.2835 16.5376 12.6799C16.741 12.9805 18.178 12.8206 19.0808 12.6799Z" fill="#39322B"/>
<path fill-rule="evenodd" clip-rule="evenodd" d="M20.3461 29.484C20.9503 29.7829 21.5919 29.998 22.2536 30.1235C23.9194 30.603 25.8968 30.7629 27.3401 32.0418C29.2476 33.7107 29.2476 37.7966 29.2476 37.7966H0C0 37.7966 0 33.7107 1.90745 32.0418C3.33168 30.7629 5.30907 30.635 6.99398 30.1235C7.65562 29.998 8.29729 29.7829 8.90143 29.484C8.90143 29.484 10.1731 36.5178 14.4012 36.5178C19.0491 36.5178 20.3461 29.484 20.3461 29.484Z" fill="#006C71"/>
</svg>

<svg width="30" height="38" fill="none" xmlns="http://www.w3.org/2000/svg"><path fill-rule="evenodd" clip-rule="evenodd" d="M19.075 37.797s1.907-3.773 1.907-6.395c0-1.106-1.907-2.557-1.907-2.557s-1.272.05-1.272-5.116c0-.805 1.163-1.65 1.94-2.142 2.002-1.279 1.697-4.892 2.51-4.892 2.175 0 1.908-1.995 1.908-3.197 0-1.38-1.908 0-1.908 0V5.825H6.993v7.673s-1.907-.933-1.907.64c0 .927-.368 1.918 1.272 2.557 1.272.5 2.105 2.935 2.683 4.349.579 1.413 2.277 1.451 2.277 2.698 0 4.61-1.145 5.115-1.145 5.115S7.63 30.354 7.63 30.776c0 2.078 2.543 7.033 2.543 7.033l8.902-.012z" fill="#fff"/><path fill-rule="evenodd" clip-rule="evenodd" d="M14.624 37.797h4.45s1.908-4.566 1.908-7.034c0-.767-1.907-1.918-1.907-1.918s-1.272.05-1.272-5.116c0-.805 1.163-1.65 1.94-2.142 2.002-1.279 1.697-4.892 2.51-4.892 2.175 0 1.908-1.995 1.908-3.197 0-1.38-1.907 0-1.907 0V5.825h-5.087a36.965 36.965 0 011.272 8.952c0 5.755-1.367 6.932-3.18 8.313a6.753 6.753 0 00-.635 3.197v11.51z" fill="#F1EEE9"/><path fill-rule="evenodd" clip-rule="evenodd" d="M7.051 12.789c-.063.16.064.55-.063.639-.128.09-.547-.16-.636-.185a39.642 39.642 0 01-.56-4.579c-.057-1.323.719-1.586 1.342-3.024.35-.806.152-1.644.826-2.373C9.016 2.13 11.273 0 14.013 0c5.386 0 7.808 2.404 8.813 5.18a.743.743 0 00.725.575c.718.045 1.907-.39 1.907 0 0 .889-2.073 1.042-2.073 1.957 0 .639 1.437-.295 1.437-.039 0 .64-1.437 1.356-1.5 1.918-.064.563.375 1.151.229 1.919-.18.441-.393.869-.636 1.279 0 0-.445.639-.636.639-.089 0 0-.505 0-.64 0-3.28-1.545-2.116-2.543-2.557a11.217 11.217 0 01-2.544-2.123c-.845-.934-1.316-1.816-2.886-1.816-1.062 0-2.353.486-3.51.678-.82.134-1.494-.122-2.143.441-.648.563-1.545 4.898-1.602 5.378z" fill="#009F90"/><path fill-rule="evenodd" clip-rule="evenodd" d="M21.618 17.335a3.002 3.002 0 00-1.272.64c-.528.396-1.144 1.125-1.907 1.278-1.221.243-1.272-.64-4.133-.64-2.861 0-2.912.877-4.133.64-.718-.147-1.392-.908-1.907-1.279a3.001 3.001 0 00-1.272-.64 1.193 1.193 0 00-.636 1.28c.744 2.494 3.764 7.673 7.922 7.673 4.159 0 7.223-5.192 7.974-7.673a1.215 1.215 0 00-.636-1.28zm-7.312 2.558c1.907 0 3.497 0 3.497.639a2.012 2.012 0 01-1.59 1.177c-.547.064-.94-.55-1.907-.538-.967.013-1.367.602-1.908.531a1.945 1.945 0 01-1.576-1.17c-.013-.627 1.576-.64 3.484-.64zM10.167 12.68c-1.393-.224-2.544-.53-2.544-.518a3.797 3.797 0 012.544-.518c1.189.275 2.785.64 2.543 1.036-.204.3-1.64.14-2.543 0zM19.08 12.68c1.393-.224 2.544-.53 2.544-.518a3.797 3.797 0 00-2.543-.518c-1.19.275-2.785.64-2.543 1.036.203.3 1.64.14 2.543 0z" fill="#39322B"/><path fill-rule="evenodd" clip-rule="evenodd" d="M20.346 29.484a7.42 7.42 0 001.908.64c1.665.479 3.643.639 5.086 1.918 1.908 1.669 1.908 5.755 1.908 5.755H0s0-4.086 1.907-5.755c1.425-1.28 3.402-1.407 5.087-1.919a7.42 7.42 0 001.907-.639s1.272 7.034 5.5 7.034c4.648 0 5.945-7.034 5.945-7.034z" fill="#006C71"/></svg>
